Yaru++/mimetypes/48/text-richtext.svg

<svg height="48" viewBox="0 0 12.699375 12.699375" width="48" xmlns="http://www.w3.org/2000/svg" xmlns:xlink="http://www.w3.org/1999/xlink"><linearGradient id="a" gradientUnits="userSpaceOnUse" x1="6.350071" x2="6.350071" y1=".396856" y2="12.03795"><stop offset="0" stop-color="#fff"/><stop offset=".125" stop-color="#fff" stop-opacity=".098039"/><stop offset=".92500001" stop-color="#fff" stop-opacity=".098039"/><stop offset="1" stop-color="#fff" stop-opacity=".498039"/></linearGradient><linearGradient id="b" gradientTransform="matrix(0 -.02997086 .02997 0 -3.039509 13.625372)" gradientUnits="userSpaceOnUse" x1="459.03448" x2="35.310345" y1="419.23337" y2="207.36522"><stop offset="0" stop-color="#f2f2f2"/><stop offset="1" stop-color="#f9f9f9"/></linearGradient><path d="m4.1621982.39685586c-.5881133-.00895835-1.0513178.01354071-1.4323995.0775109-.3810845.06396888-.6929229.18395548-.9213476.41184068-.2284221.22788556-.3489842.53958346-.4123567.92082876-.0633725.3812456-.0757438.8453924-.07286 1.4349839v3.2399529 3.2415028c-.00286.5886862.00955 1.0525982.07286 1.4334342.063372.381246.1839346.692944.4123567.920829.2284247.227885.5402631.347873.9213476.411841.3810844.06397.8442174.07751 1.4323995.07751h4.3757443c.5881821 0 1.0510744-.01352 1.4313677-.07751.3802928-.064.6911788-.18439.9187598-.412357.227583-.227967.347434-.539443.411325-.920313.06389-.380868.07751-.844073.07751-1.4334342v-3.2415028-3.1748437l-2.8389625-2.84361415z" opacity=".1"/><path d="m4.1623596.39685586c-2.3346161 0-2.5858176.23979328-2.574375 2.57913194v3.2414149 3.2414149c-.011456 2.3393394.2397589 2.5791324 2.574375 2.5791324h4.3757787c2.3346157 0 2.5743747-.239767 2.5743747-2.5791324v-3.2414149l-.000177-3.1748438-2.6457031-2.64570304z" fill="none" opacity=".2" stroke="#000" stroke-width=".529141"/><path d="m4.1623596.39685586c-2.3346161 0-2.5858176.23979328-2.574375 2.57913194v3.2414149 3.2414149c-.011456 2.3393394.2397589 2.5791324 2.574375 2.5791324h4.3757787c2.3346157 0 2.5743747-.239767 2.5743747-2.5791324v-3.2414149l-.000177-3.1748438-2.6457031-2.64570304z" fill="url(#b)"/><path d="m7.4084574 4.8945511v.2645703h2.1165625v-.2645703zm0 .793711v.2645703h2.1165625v-.2645703zm0 .7937109v.2645703h2.1165625v-.2645703zm0 .7937109v.2645704h2.1165625v-.2645704zm0 .793711v.2645703h2.1165625v-.2645703zm-4.233125.7937109v.2645703h6.3496875v-.2645703zm0 .793711v.26457h4.233125v-.26457z" fill="#999"/><path d="m4.8011752 4.6299782-1.305218 3.4394167h-.3206248v.2645676h.9259829v-.2645676h-.296459l.3092642-.7942639h1.5346031l.308899.7942639h-.4005065v.2645676h1.3283017v-.2645676h-.3664272l-1.3055857-3.4394167zm.080247.5954459.6756941 1.7862451h-1.3400277z" fill="#999" stroke-width=".26457"/><path d="m4.1621982.39685586c-2.3346161 0-2.5858361.23970518-2.5743935 2.57904384v3.241503 3.241503c-.011456 2.3393383.2397774 2.5790443 2.5743935 2.5790443h4.3757443c2.3346155 0 2.5743935-.239679 2.5743935-2.5790443v-3.241503-3.1748438h-.264571v3.1748438 3.241503c0 .5803223-.01624 1.0240723-.07028 1.3461043-.05402.322035-.13987.509123-.264054.633524-.124184.124388-.310701.2105-.6319709.264571-.321273.05406-.7643965.07028-1.3435224.07028h-4.3757395c-.5791259 0-1.0227997-.01619-1.3450728-.07028-.3222705-.0541-.5102953-.14009-.635072-.264571-.124774-.124488-.2105873-.311351-.2640517-.633005-.053467-.321654-.0684682-.765512-.0656267-1.3455899v-.0005291-3.2420073-3.2420198-.0005291c-.0028309-.5800778.0121703-1.0239334.0656267-1.3455882.053467-.3216548.1392777-.5085248.2640517-.63300506.1247741-.1244803.3133201-.2104736.6355905-.2645703.3222705-.0540718.7654284-.0702641 1.3445543-.0702641h4.3044347v-.26457028z" fill="url(#a)" opacity=".4"/><path d="m11.112336 3.3071293v-.2645704l-2.6457031-2.64570304h-.2645703v1.11359064.042668.022917c0 1.5059289.201592 1.7381397 1.7109762 1.7307589z" opacity=".2"/><path d="m11.112336 3.0422203-2.6457031-2.64536497v.98127587.042668.022917c0 1.5059289.069402 1.6058846 1.5787861 1.5985039z" fill="#faf8f6"/></svg>

<?xml version="1.0" encoding="UTF-8" standalone="no"?>
<svg
   xmlns:dc="http://purl.org/dc/elements/1.1/"
   xmlns:cc="http://creativecommons.org/ns#"
   xmlns:rdf="http://www.w3.org/1999/02/22-rdf-syntax-ns#"
   xmlns:svg="http://www.w3.org/2000/svg"
   xmlns="http://www.w3.org/2000/svg"
   xmlns:xlink="http://www.w3.org/1999/xlink"
   xmlns:sodipodi="http://sodipodi.sourceforge.net/DTD/sodipodi-0.dtd"
   xmlns:inkscape="http://www.inkscape.org/namespaces/inkscape"
   height="48"
   viewBox="0 0 12.699375 12.699375"
   width="48"
   version="1.1"
   id="svg35"
   sodipodi:docname="text-richtext.svg"
   inkscape:version="0.92.5 (2060ec1f9f, 2020-04-08)">
  <metadata
     id="metadata41">
    <rdf:RDF>
      <cc:Work
         rdf:about="">
        <dc:format>image/svg+xml</dc:format>
        <dc:type
           rdf:resource="http://purl.org/dc/dcmitype/StillImage" />
      </cc:Work>
    </rdf:RDF>
  </metadata>
  <defs
     id="defs39">
    <linearGradient
       gradientTransform="matrix(0.26457031,0,0,0.26457031,-84.662116,-16.006503)"
       inkscape:collect="always"
       xlink:href="#linearGradient927"
       id="linearGradient1004"
       x1="344"
       y1="62"
       x2="344"
       y2="106"
       gradientUnits="userSpaceOnUse" />
    <linearGradient
       inkscape:collect="always"
       id="linearGradient927">
      <stop
         style="stop-color:#ffffff;stop-opacity:1;"
         offset="0"
         id="stop923" />
      <stop
         id="stop933"
         offset="0.125"
         style="stop-color:#ffffff;stop-opacity:0.09803922" />
      <stop
         id="stop931"
         offset="0.92500001"
         style="stop-color:#ffffff;stop-opacity:0.09803922" />
      <stop
         style="stop-color:#ffffff;stop-opacity:0.49803922"
         offset="1"
         id="stop925" />
    </linearGradient>
    <linearGradient
       inkscape:collect="always"
       xlink:href="#linearGradient4338"
       id="linearGradient1024"
       gradientUnits="userSpaceOnUse"
       gradientTransform="matrix(0,-0.02997086,0.02997,0,-3.0395088,13.625372)"
       x1="459.03448"
       y1="419.23337"
       x2="35.310345"
       y2="207.36522" />
    <linearGradient
       inkscape:collect="always"
       id="linearGradient4338">
      <stop
         style="stop-color:#f2f2f2;stop-opacity:1"
         offset="0"
         id="stop4340" />
      <stop
         style="stop-color:#f9f9f9;stop-opacity:1"
         offset="1"
         id="stop4342" />
    </linearGradient>
  </defs>
  <sodipodi:namedview
     pagecolor="#ffffff"
     bordercolor="#666666"
     borderopacity="1"
     objecttolerance="10"
     gridtolerance="10"
     guidetolerance="10"
     inkscape:pageopacity="0"
     inkscape:pageshadow="2"
     inkscape:window-width="834"
     inkscape:window-height="480"
     id="namedview37"
     showgrid="false"
     inkscape:zoom="4.9166667"
     inkscape:cx="24"
     inkscape:cy="24"
     inkscape:window-x="0"
     inkscape:window-y="28"
     inkscape:window-maximized="0"
     inkscape:current-layer="svg35" />
  <linearGradient
     id="a"
     gradientUnits="userSpaceOnUse"
     x1="344"
     x2="344"
     y1="62"
     y2="106">
    <stop
       offset="0"
       stop-color="#fff"
       id="stop2" />
    <stop
       offset=".125"
       stop-color="#fff"
       stop-opacity=".098039"
       id="stop4" />
    <stop
       offset=".92500001"
       stop-color="#fff"
       stop-opacity=".098039"
       id="stop6" />
    <stop
       offset="1"
       stop-color="#fff"
       stop-opacity=".498039"
       id="stop8" />
  </linearGradient>
  <clipPath
     id="b">
    <path
       d="m335.73108 62c-8.82418 0-9.77365.90635-9.7304 9.74838v12.25162 12.25162c-.0433 8.84203.90622 9.74838 9.7304 9.74838h16.53919c8.82418 0 9.7304-.90625 9.7304-9.74838v-12.25162-12.25162c0-8.84213-.90622-9.74838-9.7304-9.74838z"
       id="path11" />
  </clipPath>
  <linearGradient
     id="c"
     gradientTransform="matrix(0 -.02997086 .02997 0 -3.039332 13.567584)"
     gradientUnits="userSpaceOnUse"
     x1="459.03448"
     x2="35.310345"
     y1="419.23337"
     y2="207.36522">
    <stop
       offset="0"
       stop-color="#f2f2f2"
       id="stop14" />
    <stop
       offset="1"
       stop-color="#f9f9f9"
       id="stop16" />
  </linearGradient>
  <path
     style="color:#000000;font-style:normal;font-variant:normal;font-weight:normal;font-stretch:normal;font-size:medium;line-height:normal;font-family:sans-serif;font-variant-ligatures:normal;font-variant-position:normal;font-variant-caps:normal;font-variant-numeric:normal;font-variant-alternates:normal;font-feature-settings:normal;text-indent:0;text-align:start;text-decoration:none;text-decoration-line:none;text-decoration-style:solid;text-decoration-color:#000000;letter-spacing:normal;word-spacing:normal;text-transform:none;writing-mode:lr-tb;direction:ltr;text-orientation:mixed;dominant-baseline:auto;baseline-shift:baseline;text-anchor:start;white-space:normal;shape-padding:0;clip-rule:nonzero;display:inline;overflow:visible;visibility:visible;opacity:0.1;isolation:auto;mix-blend-mode:normal;color-interpolation:sRGB;color-interpolation-filters:linearRGB;solid-color:#000000;solid-opacity:1;vector-effect:none;fill:#000000;fill-opacity:1;fill-rule:nonzero;stroke:none;stroke-width:0.52914065;stroke-linecap:butt;stroke-linejoin:miter;stroke-miterlimit:4;stroke-dasharray:none;stroke-dashoffset:0;stroke-opacity:1;marker:none;color-rendering:auto;image-rendering:auto;shape-rendering:auto;text-rendering:auto;enable-background:accumulate"
     d="M 4.1621982,0.39685586 C 3.5740849,0.38789751 3.1108804,0.41039657 2.7297987,0.47436676 2.3487142,0.53833564 2.0368758,0.65832224 1.8084511,0.88620744 1.580029,1.114093 1.4594669,1.4257909 1.3960944,1.8070362 1.3327219,2.1882818 1.3203506,2.6524286 1.3232344,3.2420201 V 6.481973 9.7234758 c -0.00286,0.5886862 0.00955,1.0525982 0.07286,1.4334342 0.063372,0.381246 0.1839346,0.692944 0.4123567,0.920829 0.2284247,0.227885 0.5402631,0.347873 0.9213476,0.411841 0.3810844,0.06397 0.8442174,0.07751 1.4323995,0.07751 h 4.3757443 c 0.5881821,0 1.0510744,-0.01352 1.4313677,-0.07751 0.3802928,-0.064 0.6911788,-0.18439 0.9187598,-0.412357 0.227583,-0.227967 0.347434,-0.539443 0.411325,-0.920313 0.06389,-0.380868 0.07751,-0.844073 0.07751,-1.4334342 V 6.481973 3.3071293 L 8.5379425,0.46351515 Z"
     id="path1020"
     inkscape:connector-curvature="0"
     sodipodi:nodetypes="sccsccccccsscccscccs" />
  <path
     style="color:#000000;display:inline;overflow:visible;visibility:visible;opacity:0.2;fill:none;fill-opacity:1;fill-rule:nonzero;stroke:#000000;stroke-width:0.52914065;stroke-miterlimit:4;stroke-dasharray:none;stroke-opacity:1;marker:none;enable-background:accumulate"
     d="m 4.1623596,0.39685586 c -2.3346161,0 -2.5858176,0.23979328 -2.574375,2.57913194 V 6.2174027 9.4588176 C 1.5765286,11.798157 1.8277435,12.03795 4.1623596,12.03795 h 4.3757787 c 2.3346157,0 2.5743747,-0.239767 2.5743747,-2.5791324 V 6.2174027 L 11.112336,3.0425589 8.4666329,0.39685586 Z"
     id="path958"
     inkscape:connector-curvature="0"
     sodipodi:nodetypes="scccssscccs" />
  <path
     style="color:#000000;display:inline;overflow:visible;visibility:visible;fill:url(#linearGradient1024);fill-opacity:1;fill-rule:nonzero;stroke:none;stroke-width:0.26457033;marker:none;enable-background:accumulate"
     d="m 4.1623596,0.39685586 c -2.3346161,0 -2.5858176,0.23979328 -2.574375,2.57913194 V 6.2174027 9.4588176 C 1.5765286,11.798157 1.8277435,12.03795 4.1623596,12.03795 h 4.3757787 c 2.3346157,0 2.5743747,-0.239767 2.5743747,-2.5791324 V 6.2174027 L 11.112336,3.0425589 8.4666329,0.39685586 Z"
     id="path964"
     inkscape:connector-curvature="0"
     sodipodi:nodetypes="scccssscccs" />
  <path
     inkscape:connector-curvature="0"
     style="display:inline;opacity:1;fill:#999999;fill-opacity:1;stroke:none;stroke-width:0.52914065;stroke-linecap:square;stroke-linejoin:round;stroke-miterlimit:4;stroke-dasharray:none;stroke-dashoffset:0;stroke-opacity:1;enable-background:new"
     d="M 7.4084574,4.8945511 V 5.1591214 H 9.5250199 V 4.8945511 Z m 0,0.793711 V 5.9528324 H 9.5250199 V 5.6882621 Z m 0,0.7937109 V 6.7465433 H 9.5250199 V 6.481973 Z m 0,0.7937109 V 7.5402543 H 9.5250199 V 7.2756839 Z m 0,0.793711 V 8.3339652 H 9.5250199 V 8.0693949 Z M 3.1753324,8.8631058 V 9.1276761 H 9.5250199 V 8.8631058 Z m 0,0.793711 v 0.26457 h 4.233125 v -0.26457 z"
     id="rect1105-7"
     sodipodi:nodetypes="ccccccccccccccccccccccccccccccccccc" />
  <path
     sodipodi:nodetypes="ccccccccccccccccccccc"
     inkscape:connector-curvature="0"
     d="M 4.8011752,4.6299782 3.4959572,8.0693949 H 3.1753324 V 8.3339625 H 4.1013153 V 8.0693949 H 3.8048563 L 4.1141205,7.275131 h 1.5346031 l 0.308899,0.7942639 H 5.5571161 V 8.3339625 H 6.8854178 V 8.0693949 H 6.5189906 L 5.2134049,4.6299782 Z m 0.080247,0.5954459 0.6756941,1.7862451 H 4.2170886 Z"
     font-size="13.717"
     font-weight="400"
     letter-spacing="0"
     overflow="visible"
     style="color:#bebebe;font-weight:400;font-size:13.71700001px;line-height:125%;font-family:'DejaVu Serif';-inkscape-font-specification:'DejaVu Serif';letter-spacing:0;word-spacing:0;display:inline;overflow:visible;fill:#999999;fill-opacity:1;stroke-width:0.26457036;marker:none;enable-background:new"
     word-spacing="0"
     id="path3233-3" />
  <path
     style="color:#000000;font-style:normal;font-variant:normal;font-weight:normal;font-stretch:normal;font-size:medium;line-height:normal;font-family:sans-serif;font-variant-ligatures:normal;font-variant-position:normal;font-variant-caps:normal;font-variant-numeric:normal;font-variant-alternates:normal;font-feature-settings:normal;text-indent:0;text-align:start;text-decoration:none;text-decoration-line:none;text-decoration-style:solid;text-decoration-color:#000000;letter-spacing:normal;word-spacing:normal;text-transform:none;writing-mode:lr-tb;direction:ltr;text-orientation:mixed;dominant-baseline:auto;baseline-shift:baseline;text-anchor:start;white-space:normal;shape-padding:0;clip-rule:nonzero;display:inline;overflow:visible;visibility:visible;opacity:0.4;isolation:auto;mix-blend-mode:normal;color-interpolation:sRGB;color-interpolation-filters:linearRGB;solid-color:#000000;solid-opacity:1;vector-effect:none;fill:url(#linearGradient1004);fill-opacity:1;fill-rule:nonzero;stroke:none;stroke-width:0.52914065;stroke-linecap:butt;stroke-linejoin:miter;stroke-miterlimit:4;stroke-dasharray:none;stroke-dashoffset:0;stroke-opacity:1;marker:none;color-rendering:auto;image-rendering:auto;shape-rendering:auto;text-rendering:auto;enable-background:accumulate"
     clip-path="none"
     d="m 4.1621982,0.39685586 c -2.3346161,0 -2.5858361,0.23970518 -2.5743935,2.57904384 v 3.241503 3.241503 C 1.5763487,11.798244 1.8275821,12.03795 4.1621982,12.03795 h 4.3757443 c 2.3346155,0 2.5743935,-0.239679 2.5743935,-2.5790443 V 6.2174027 3.0425589 h -0.264571 v 3.1748438 3.241503 c 0,0.5803223 -0.01624,1.0240723 -0.07028,1.3461043 -0.05402,0.322035 -0.13987,0.509123 -0.264054,0.633524 -0.124184,0.124388 -0.310701,0.2105 -0.6319709,0.264571 -0.321273,0.05406 -0.7643965,0.07028 -1.3435224,0.07028 H 4.1621982 c -0.5791259,0 -1.0227997,-0.01619 -1.3450728,-0.07028 -0.3222705,-0.0541 -0.5102953,-0.14009 -0.635072,-0.264571 C 2.0572794,11.314046 1.9714661,11.127183 1.9180017,10.805529 1.8645347,10.483875 1.8495335,10.040017 1.852375,9.4599391 V 9.45941 6.2174027 2.9753829 2.9748538 C 1.8495441,2.394776 1.8645453,1.9509204 1.9180017,1.6292656 1.9714687,1.3076108 2.0572794,1.1207408 2.1820534,0.99626054 2.3068275,0.87178024 2.4953735,0.78578694 2.8176439,0.73169024 3.1399144,0.67761844 3.5830723,0.66142614 4.1621982,0.66142614 H 8.4666329 V 0.39685586 Z"
     id="path990"
     inkscape:connector-curvature="0" />
  <path
     inkscape:connector-curvature="0"
     style="color:#000000;display:inline;overflow:visible;visibility:visible;opacity:0.2;fill:#000000;fill-opacity:1;fill-rule:nonzero;stroke:none;stroke-width:0.06614863;marker:none;enable-background:accumulate"
     d="M 11.112336,3.3071293 V 3.0425589 L 8.4666329,0.39685586 H 8.2020626 v 1.11359064 0.042668 0.022917 c 0,1.5059289 0.201592,1.7381397 1.7109762,1.7307589 z"
     id="rect4158-0-3-62-2"
     sodipodi:nodetypes="ccccccscc" />
  <path
     inkscape:connector-curvature="0"
     style="color:#000000;display:inline;overflow:visible;visibility:visible;fill:#faf8f6;fill-opacity:1;fill-rule:nonzero;stroke:none;stroke-width:0.06614863;marker:none;enable-background:accumulate"
     d="M 11.112336,3.0422203 8.4666329,0.39685533 v 0.98127587 0.042668 0.022917 c 0,1.5059289 0.069402,1.6058846 1.5787861,1.5985039 z"
     id="rect4158-0-3-62"
     sodipodi:nodetypes="ccccscc" />
</svg>
